app/data/img/ct.ide.svg

<svg height="1024" viewBox="0 0 1024 1024" width="1024" xmlns="http://www.w3.org/2000/svg" xmlns:xlink="http://www.w3.org/1999/xlink"><clipPath id="a"><path d="m0 0h1024v1024h-1024z"/></clipPath><g clip-path="url(#a)"><path d="m79.954 924.235c-30.873-78.749 31.095-288.422 112.239-491.486 10.836-27.117 21.724-53.009 32.665-77.677q129.319-291.567 268.428-355.072-7.438 55.888-6.348 76.859 1.09 20.971 4.055 37.387 43.332-.91 101.378 7.885 58.046 8.795 98.856 26.996 44.389-33.829 79.94-48.786 35.552-14.958 93.891-20.673-97.423 307.99-104.345 424.216c-11.325 190.153 5.754 313.659 9.46 367.766 24.584 3.255 48.535.482 84.435-12.98 20.681-7.755 48.389-31.011 40.023-69.671-5.42-25.051-39.286-29.491-59.294-26.683-8.279 1.162-24.979-.992-28.906-14.082-4.447-14.824 7.676-26.155 17.788-30.389 22.233-9.306 67.268-16.809 100.327 13.802 27.982 25.909 28.842 64.758 23.265 94.281-5.254 27.809-25.713 48.977-42.566 61.832-32.547 24.826-87.835 40.574-132.155 46.96-2.854 30.002-28.682 41.663-48.879 50.511-64.469 28.242-184.754 43.021-309.238 37.695-179.914-7.698-312.932-42.349-335.019-98.691z" fill="#446adb"/><g fill="#fff"><path d="m449.6 365.5c-.4-2.4.2-4.8 1.7-6.8 1.4-2 3.6-3.3 6-3.6 2.4-.4 4.9.2 6.8 1.6 2 1.5 3.3 3.6 3.7 6 .4 3 1.3 5.8 2.6 8.5.7 1.5 1.8 2.8 3 3.9 1.3 1 2.7 1.9 4.3 2.3 2.7.9 5.6 1.3 8.5 1.3 3.1 0 6.2-.5 9.2-1.3 1.6-.5 3.2-1.2 4.5-2.3 1.2-.9 2.2-2 2.9-3.3 1.1-1.9 1.9-4 2.4-6.2.5-2.4 1.9-4.5 3.9-5.9 2-1.3 4.5-1.8 6.9-1.3s4.5 1.9 5.8 3.9c1.4 2 1.9 4.5 1.4 6.9-.9 4.2-2.4 8.1-4.5 11.8-1.9 3.4-4.5 6.4-7.6 8.7-3.2 2.5-6.8 4.3-10.7 5.3-4.6 1.3-9.3 2-14.1 2.1-4.8 0-9.5-.7-14-2.1-4-1.2-7.7-3.3-10.8-6-3.2-2.7-5.8-6-7.6-9.7-2.1-4.4-3.6-9-4.3-13.8z"/><path d="m458.372 184c19.184 4.836 4.731 42.829-1.333 59.216-6.064 16.386-19.232 54.918-35.342 51.613-16.11-3.304-10.917-42.683-3.068-66.15s20.56-49.514 39.743-44.679z"/><path d="m623.373 208.9c19.183 4.835 8.385 42.455 2.32 58.841-6.064 16.387-19.231 54.918-35.342 51.614-16.11-3.305-10.916-42.684-3.068-66.151 7.849-23.466 16.906-49.14 36.09-44.304z"/></g></g></svg>

<?xml version="1.0" standalone="no"?><!-- Generator: Gravit.io --><svg xmlns="http://www.w3.org/2000/svg" xmlns:xlink="http://www.w3.org/1999/xlink" style="isolation:isolate" viewBox="0 0 1024 1024" width="1024" height="1024"><defs><clipPath id="_clipPath_FmLtfbxh9k2GcTSKIwSuDAMkoaPxWS6T"><rect width="1024" height="1024"/></clipPath></defs><g clip-path="url(#_clipPath_FmLtfbxh9k2GcTSKIwSuDAMkoaPxWS6T)"><g id="Logo"><g id="Group"><path d=" M 79.954 924.235 C 49.081 845.486 111.049 635.813 192.193 432.749 C 203.029 405.632 213.917 379.74 224.858 355.072 Q 354.177 63.505 493.286 0 Q 485.848 55.888 486.938 76.859 Q 488.028 97.83 490.993 114.246 Q 534.325 113.336 592.371 122.131 Q 650.417 130.926 691.227 149.127 Q 735.616 115.298 771.167 100.341 Q 806.719 85.383 865.058 79.668 Q 767.635 387.658 760.713 503.884 C 749.388 694.037 766.467 817.543 770.173 871.65 C 794.757 874.905 818.708 872.132 854.608 858.67 C 875.289 850.915 902.997 827.659 894.631 788.999 C 889.211 763.948 855.345 759.508 835.337 762.316 C 827.058 763.478 810.358 761.324 806.431 748.234 C 801.984 733.41 814.107 722.079 824.219 717.845 C 846.452 708.539 891.487 701.036 924.546 731.647 C 952.528 757.556 953.388 796.405 947.811 825.928 C 942.557 853.737 922.098 874.905 905.245 887.76 C 872.698 912.586 817.41 928.334 773.09 934.72 C 770.236 964.722 744.408 976.383 724.211 985.231 C 659.742 1013.473 539.457 1028.252 414.973 1022.926 C 235.059 1015.228 102.041 980.577 79.954 924.235 Z " fill="rgb(68,106,219)"/><path d=" M 449.6 365.5 C 449.2 363.1 449.8 360.7 451.3 358.7 C 452.7 356.7 454.9 355.4 457.3 355.1 C 459.7 354.7 462.2 355.3 464.1 356.7 C 466.1 358.2 467.4 360.3 467.8 362.7 C 468.2 365.7 469.1 368.5 470.4 371.2 C 471.1 372.7 472.2 374 473.4 375.1 C 474.7 376.1 476.1 377 477.7 377.4 C 480.4 378.3 483.3 378.7 486.2 378.7 C 489.3 378.7 492.4 378.2 495.4 377.4 C 497 376.9 498.6 376.2 499.9 375.1 C 501.1 374.2 502.1 373.1 502.8 371.8 C 503.9 369.9 504.7 367.8 505.2 365.6 C 505.7 363.2 507.1 361.1 509.1 359.7 C 511.1 358.4 513.6 357.9 516 358.4 C 518.4 358.9 520.5 360.3 521.8 362.3 C 523.2 364.3 523.7 366.8 523.2 369.2 C 522.3 373.4 520.8 377.3 518.7 381 C 516.8 384.4 514.2 387.4 511.1 389.7 C 507.9 392.2 504.3 394 500.4 395 C 495.8 396.3 491.1 397 486.3 397.1 C 481.5 397.1 476.8 396.4 472.3 395 C 468.3 393.8 464.6 391.7 461.5 389 C 458.3 386.3 455.7 383 453.9 379.3 C 451.8 374.9 450.3 370.3 449.6 365.5 Z " fill="rgb(255,255,255)"/><path d=" M 458.372 184 C 477.556 188.836 463.103 226.829 457.039 243.216 C 450.975 259.602 437.807 298.134 421.697 294.829 C 405.587 291.525 410.78 252.146 418.629 228.679 C 426.478 205.212 439.189 179.165 458.372 184 Z " fill="rgb(255,255,255)"/><path d=" M 623.373 208.9 C 642.556 213.735 631.758 251.355 625.693 267.741 C 619.629 284.128 606.462 322.659 590.351 319.355 C 574.241 316.05 579.435 276.671 587.283 253.204 C 595.132 229.738 604.189 204.064 623.373 208.9 Z " fill="rgb(255,255,255)"/></g></g></g></svg>
